X:223
T:Frank's Reel
M:4/4
L:1/8
C:John McCusker
K:A
E|"A"AcBA "D"F2 AF|"A"EFAB cABc|"D"d3 f "A"eAce|"D"((3fga) ec "E"((3Bcd) cB|
"A"AcBA "D"F2 AF|"A"EFAB cABc|"D"d3 f "A"ecAc|[1 "E"BAGB "A"A3:|[2 "E"BAGB Aefg|
"A"aAAg "D"AAfA|"E"effe "A"cABc|"D"d3 f "A"ecAc|"E"Bcde fefg|
"A"aAAg "D"AAfA|"E"effe "A"cABc|"D"d3 f "A"ecAc|"E"BAGB Aefg|
"A"aAAg "D"AAfA|"E"effe "A"cABc|"D"d3 f "A"eAce|"D"((3fga) ec "E"((3Bcd) cB|
"A"AcBA "D"F2 AF|"A"EFAB cABc|"D"d3 f "A"ecAc|"E"BAGB "A"A4||
